icons/reply-24.svg

<svg xmlns="http://www.w3.org/2000/svg" width="24" height="24" viewBox="0 0 24 24"><path d="M10.53 5.03a.75.75 0 10-1.06-1.06l-6.25 6.25a.75.75 0 000 1.06l6.25 6.25a.75.75 0 101.06-1.06L5.56 11.5H17a3.248 3.248 0 013.25 3.248v4.502a.75.75 0 001.5 0v-4.502A4.748 4.748 0 0017 10H5.56l4.97-4.97z"/></svg>

<svg xmlns="http://www.w3.org/2000/svg" width="24" height="24" viewBox="0 0 24 24">
  <defs/>
  <path d="M10.53,5.03 A0.75 0.75 0 1 0 9.47,3.97 L3.22,10.22 A0.75 0.75 0 0 0 3.22,11.28 L9.47,17.53 A0.75 0.75 0 1 0 10.53,16.47 L5.56,11.5 L17,11.5 A3.248 3.248 0 0 1 20.25,14.748 L20.25,19.25 A0.75 0.75 0 0 0 21.75,19.25 L21.75,14.748 A4.748 4.748 0 0 0 17,10 L5.56,10 L10.53,5.03 Z"/>
</svg>
